_site/assets/img/java.svg

<svg width="56" height="56" viewBox="0 0 56 56" fill="none" xmlns="http://www.w3.org/2000/svg">
<g style="mix-blend-mode:luminosity">
<path d="M28.0863 14.7711C39.6155 5.82062 33.6984 0 33.6984 0C34.579 9.25292 24.172 11.4377 21.3824 17.796C19.4789 22.1348 22.6858 25.9339 28.0825 30.7219C27.6053 29.6615 26.8695 28.631 26.1246 27.5878C23.5839 24.0297 20.9371 20.3231 28.0863 14.7711Z" fill="#E76F00"/>
<path d="M29.9269 32.6848C29.9269 32.6848 33.3955 29.8862 30.6486 26.7763C21.3372 16.2258 40.8326 11.4377 40.8326 11.4377C28.9298 17.1719 30.7068 20.5755 33.6985 24.7103C36.9017 29.1441 29.9269 32.6848 29.9269 32.6848Z" fill="#E76F00"/>
<path d="M40.1398 41.0297C50.8241 35.5702 45.8841 30.3236 42.436 31.0304C41.5909 31.2034 41.2141 31.3533 41.2141 31.3533C41.2141 31.3533 41.5278 30.87 42.1271 30.6608C48.9484 28.3025 54.1944 37.6161 39.9251 41.3049C39.9251 41.3051 40.0904 41.1597 40.1398 41.0297Z" fill="#5382A1"/>
<path d="M17.9078 34.1196C11.223 33.2418 21.573 30.8243 21.573 30.8243C21.573 30.8243 17.5537 30.5578 12.6104 32.9076C6.7651 35.688 27.0691 36.9526 37.5795 34.2343C38.6722 33.5006 40.1825 32.8646 40.1825 32.8646C40.1825 32.8646 35.8815 33.62 31.5982 33.9753C26.3571 34.4072 20.7304 34.4912 17.9078 34.1196Z" fill="#5382A1"/>
<path d="M20.4511 39.3327C16.7234 38.9535 19.1642 37.1768 19.1642 37.1768C9.51822 40.3251 24.5311 43.8952 38.0098 40.0194C36.5771 39.5227 35.666 38.6144 35.666 38.6144C29.0786 39.8617 25.2717 39.8217 20.4511 39.3327Z" fill="#5382A1"/>
<path d="M22.0754 44.9735C18.3504 44.5524 20.5266 43.3079 20.5266 43.3079C11.7704 45.7139 25.8526 50.6844 37.0007 45.986C35.1748 45.2878 33.8673 44.4816 33.8673 44.4816C28.8944 45.4072 26.588 45.4798 22.0754 44.9735Z" fill="#5382A1"/>
<path d="M45.3926 47.8428C45.3926 47.8428 47.0031 49.1477 43.619 50.1572C37.1842 52.0741 16.8366 52.6529 11.1841 50.2336C9.15222 49.3643 12.9626 48.158 14.1613 47.9049C15.4113 47.6383 16.1256 47.688 16.1256 47.688C13.8659 46.1226 1.51986 50.7617 9.85444 52.0902C32.5841 55.715 51.2884 50.458 45.3926 47.8428Z" fill="#5382A1"/>
<path d="M49 50.6938C48.627 55.4657 32.8785 56.4695 22.623 55.8239C15.9326 55.402 14.5917 54.3476 14.5721 54.3322C20.9753 55.3703 31.7711 55.5593 40.5244 53.9394C48.2831 52.5028 49 50.6938 49 50.6938Z" fill="#5382A1"/>
</g>
</svg>

<svg width="56" height="56" fill="none" xmlns="http://www.w3.org/2000/svg"><g style="mix-blend-mode:luminosity"><path d="M28.086 14.771C39.616 5.821 33.698 0 33.698 0c.881 9.253-9.526 11.438-12.316 17.796-1.903 4.339 1.304 8.138 6.7 12.926-.477-1.06-1.213-2.091-1.957-3.134-2.541-3.558-5.188-7.265 1.961-12.817z" fill="#E76F00"/><path d="M29.927 32.685s3.468-2.799.722-5.909c-9.312-10.55 10.184-15.338 10.184-15.338-11.903 5.734-10.126 9.138-7.134 13.272 3.203 4.434-3.772 7.975-3.772 7.975z" fill="#E76F00"/><path d="M40.14 41.03c10.684-5.46 5.744-10.706 2.296-10-.845.173-1.222.323-1.222.323s.314-.483.913-.692c6.821-2.359 12.067 6.955-2.202 10.644 0 0 .165-.145.215-.275zm-22.232-6.91c-6.685-.878 3.665-3.296 3.665-3.296s-4.02-.266-8.963 2.084c-5.845 2.78 14.46 4.045 24.97 1.326 1.092-.733 2.602-1.37 2.602-1.37s-4.3.756-8.584 1.111c-5.24.432-10.868.516-13.69.145zm2.543 5.213c-3.728-.38-1.287-2.156-1.287-2.156-9.646 3.148 5.367 6.718 18.846 2.842-1.433-.496-2.344-1.405-2.344-1.405-6.587 1.248-10.394 1.208-15.215.719zm1.624 5.641c-3.725-.422-1.548-1.666-1.548-1.666-8.757 2.406 5.326 7.376 16.474 2.678-1.826-.698-3.134-1.504-3.134-1.504-4.973.925-7.279.998-11.792.492z" fill="#5382A1"/><path d="M45.393 47.843s1.61 1.305-1.774 2.314c-6.435 1.917-26.782 2.496-32.435.077-2.032-.87 1.779-2.076 2.977-2.33 1.25-.266 1.965-.216 1.965-.216-2.26-1.565-14.606 3.074-6.272 4.402 22.73 3.625 41.434-1.632 35.539-4.247z" fill="#5382A1"/><path d="M49 50.694c-.373 4.772-16.121 5.775-26.377 5.13-6.69-.422-8.031-1.476-8.05-1.492 6.402 1.038 17.198 1.227 25.951-.393C48.284 52.503 49 50.694 49 50.694z" fill="#5382A1"/></g></svg>
